; generated by PrusaSlicer 2.5.0+win64 on 2023-05-22 at 01:55:30 UTC


;
;

;
;
; 

; external perimeters extrusion width = 0.45mm
; perimeters extrusion width = 0.45mm
; infill extrusion width = 0.45mm
; solid infill extrusion width = 0.45mm
; top infill extrusion width = 0.40mm
; first layer extrusion width = 0.42mm

M73 P0 R107
M201 X2500 Y2500 Z400 E5000 ; sets maximum accelerations, mm/sec^2
M203 X180 Y180 Z12 E80 ; sets maximum feedrates, mm / sec
M204 P1250 R1250 T2500 ; sets acceleration (P, T) and retract acceleration (R), mm/sec^2
M205 X8.00 Y8.00 Z2.00 E10.00 ; sets the jerk limits, mm/sec
M205 S0 T0 ; sets the minimum extruding and travel feed rate, mm/sec
M107
;TYPE:Custom
M862.3 P "MINI" ; printer model check
G90 ; use absolute coordinates
M83 ; extruder relative mode
M104 S170 ; set extruder temp for bed leveling
M140 S60 ; set bed temp
M109 R170 ; wait for bed leveling temp
M190 S60 ; wait for bed temp
M204 T1250 ; set travel acceleration
G28 ; home all without mesh bed level
G29 ; mesh bed leveling 
M204 T2500 ; restore travel acceleration
M104 S215 ; set extruder temp
G92 E0
G1 Y-2 X179 F2400
G1 Z3 F720
M109 S215 ; wait for extruder temp

; intro line
G1 X170 F1000
G1 Z0.2 F720
G1 X110 E8 F900
G1 X40 E10 F700
G92 E0

M221 S95 ; set flow
G21 ; set units to millimeters
G90 ; use absolute coordinates
M83 ; use relative distances for extrusion
M900 K0.2 ; Filament gcode LA 1.5
; ; Filament gcode LA 1.0
M107
;LAYER_CHANGE
;Z:0.2
;HEIGHT:0.2
;BEFORE_LAYER_CHANGE
G92 E0.0
;0.2


G1 E-3.2 F4200
M73 P0 R106
G1 Z.2 F720
;AFTER_LAYER_CHANGE
;0.2
G1 Z.4
G1 X45.06 Y58.817 F9000
G1 Z.2 F720
G1 E3.2 F2400
M204 P800
;TYPE:Skirt/Brim
;WIDTH:0.42
G1 F1200
G1 X46 Y58.623 E.03008
G1 X136 Y58.623 E2.82189
G1 X137.307 Y59.015 E.04278
G1 X138.183 Y60.06 E.04278
G1 X138.377 Y61 E.03008
G1 X138.377 Y109 E1.50501
G1 X137.985 Y110.307 E.04278
G1 X136.94 Y111.183 E.04278
G1 X136 Y111.377 E.03008
G1 X46 Y111.377 E2.82189
G1 X44.693 Y110.985 E.04278
G1 X43.817 Y109.94 E.04278
G1 X43.623 Y109 E.03008
G1 X43.623 Y61 E1.50501
G1 X44.015 Y59.693 E.04278
G1 X45.014 Y58.855 E.0409
M204 P1000
; printing object suport id:0 copy 0
G1 E-2.24 F4200
;WIPE_START
G1 F7200
G1 X46 Y58.623 E-.56121
G1 X46.633 Y58.623 E-.35079
;WIPE_END
G1 E-.048 F4200
G1 Z.4 F720
G1 X135.213 Y108.213 F9000
G1 Z.2 F720
G1 E3.2 F2400
M204 P800
;TYPE:Perimeter
;WIDTH:0.419999
G1 F1200
G1 X46.787 Y108.213 E2.77253
G1 X46.787 Y61.787 E1.45565
G1 X135.213 Y61.787 E2.77253
G1 X135.213 Y108.153 E1.45377
M204 P1000
G1 X135.59 Y108.59 F9000
M204 P800
;TYPE:External perimeter
G1 F1200
G1 X46.41 Y108.59 E2.79617
G1 X46.41 Y61.41 E1.47929
G1 X135.59 Y61.41 E2.79617
G1 X135.59 Y108.53 E1.47741
M204 P1000
G1 X135.195 Y108.525 F9000
G1 E-2.24 F4200
;WIPE_START
G1 F7200
G1 X133.944 Y108.531 E-.912
;WIPE_END
G1 E-.048 F4200
G1 Z.4 F720
G1 X130.75 Y74.752 F9000
G1 Z.2 F720
G1 E3.2 F2400
M204 P800
;TYPE:Perimeter
G1 F1200
G1 X130.306 Y75.114 E.01796
G1 X129.714 Y75.38 E.02034
G1 X129.074 Y75.484 E.02034
G1 X128.428 Y75.419 E.02034
G1 X127.822 Y75.188 E.02034
G1 X127.296 Y74.809 E.02034
G1 X126.886 Y74.306 E.02034
G1 X126.62 Y73.714 E.02034
G1 X126.516 Y73.074 E.02034
G1 X126.581 Y72.428 E.02034
G1 X126.812 Y71.822 E.02034
G1 X127.191 Y71.296 E.02034
G1 X127.694 Y70.886 E.02034
G1 X128.286 Y70.62 E.02034
G1 X128.885 Y70.521 E.01905
G1 X129.56 Y70.58 E.02125
G1 X130.178 Y70.812 E.02069
G1 X130.704 Y71.191 E.02034
G1 X131.114 Y71.694 E.02034
G1 X131.38 Y72.286 E.02034
G1 X131.489 Y73 E.02265
G1 X131.419 Y73.572 E.01806
G1 X131.188 Y74.178 E.02034
G1 X130.796 Y74.714 E.02083
M204 P1000
G1 X130.48 Y74.498 F9000
M204 P800
;TYPE:External perimeter
G1 F1200
G1 X130.076 Y74.815 E.0161
G1 X129.57 Y75.032 E.01727
G1 X129.025 Y75.11 E.01727
G1 X128.478 Y75.045 E.01727
G1 X127.966 Y74.84 E.01727
G1 X127.525 Y74.51 E.01727
G1 X127.185 Y74.076 E.01727
G1 X126.968 Y73.57 E.01727
G1 X126.89 Y73.025 E.01727
G1 X126.955 Y72.478 E.01727
G1 X127.16 Y71.966 E.01727
G1 X127.49 Y71.525 E.01727
G1 X127.924 Y71.185 E.01727
G1 X128.43 Y70.968 E.01727
G1 X128.934 Y70.895 E.01598
G1 X129.519 Y70.955 E.01841
G1 X130.034 Y71.16 E.01739
G1 X130.475 Y71.49 E.01727
G1 X130.815 Y71.924 E.01727
G1 X131.032 Y72.43 E.01727
G1 X131.112 Y73 E.01805
G1 X131.045 Y73.522 E.01651
G1 X130.84 Y74.034 E.01727
G1 X130.523 Y74.457 E.01657
M204 P1000
G1 X130.587 Y74.883 F9000
G1 E-2.24 F4200
;WIPE_START
G1 F7200
G1 X130.076 Y74.815 E-.31743
G1 X129.57 Y75.032 E-.30531
G1 X129.053 Y75.106 E-.28926
;WIPE_END
G1 E-.048 F4200
G1 Z.4 F720
G1 X128.36 Y102.607 F9000
G1 Z.2 F720
G1 E3.2 F2400
M204 P800
;TYPE:Perimeter
G1 F1200
G1 X128.885 Y102.521 E.01668
G1 X129.56 Y102.58 E.02125
G1 X130.178 Y102.812 E.02069
G1 X130.704 Y103.191 E.02034
G1 X131.114 Y103.694 E.02034
G1 X131.38 Y104.286 E.02034
G1 X131.489 Y105 E.02265
G1 X131.419 Y105.572 E.01806
G1 X131.188 Y106.178 E.02034
G1 X130.809 Y106.704 E.02034
G1 X130.306 Y107.114 E.02034
G1 X129.714 Y107.38 E.02034
G1 X129.074 Y107.484 E.02034
G1 X128.428 Y107.419 E.02034
G1 X127.822 Y107.188 E.02034
G1 X127.296 Y106.809 E.02034
G1 X126.886 Y106.306 E.02034
G1 X126.62 Y105.714 E.02034
G1 X126.516 Y105.074 E.02034
G1 X126.581 Y104.428 E.02034
G1 X126.812 Y103.822 E.02034
G1 X127.191 Y103.296 E.02034
G1 X127.694 Y102.886 E.02034
G1 X128.301 Y102.617 E.02081
M204 P1000
G1 X128.47 Y102.962 F9000
M204 P800
;TYPE:External perimeter
G1 F1200
G1 X128.934 Y102.895 E.01472
G1 X129.518 Y102.955 E.01841
G1 X130.034 Y103.16 E.01739
G1 X130.475 Y103.49 E.01727
G1 X130.815 Y103.924 E.01727
G1 X131.032 Y104.43 E.01727
G1 X131.112 Y105 E.01805
G1 X131.045 Y105.522 E.01651
G1 X130.84 Y106.034 E.01727
G1 X130.51 Y106.475 E.01727
G1 X130.076 Y106.815 E.01727
G1 X129.57 Y107.032 E.01727
G1 X129.025 Y107.11 E.01727
G1 X128.478 Y107.045 E.01727
G1 X127.966 Y106.84 E.01727
G1 X127.525 Y106.51 E.01727
G1 X127.185 Y106.076 E.01727
G1 X126.968 Y105.57 E.01727
G1 X126.89 Y105.025 E.01727
G1 X126.955 Y104.478 E.01727
G1 X127.16 Y103.966 E.01727
G1 X127.49 Y103.525 E.01727
G1 X127.924 Y103.185 E.01727
G1 X128.412 Y102.976 E.01665
M204 P1000
G1 X128.57 Y102.575 F9000
G1 E-2.24 F4200
;WIPE_START
G1 F7200
G1 X128.934 Y102.895 E-.293
G1 X129.518 Y102.955 E-.32537
G1 X130.011 Y103.151 E-.29363
;WIPE_END
G1 E-.048 F4200
G1 Z.4 F720
G1 X53.636 Y102.608 F9000
G1 Z.2 F720
G1 E3.2 F2400
M204 P800
;TYPE:Perimeter
G1 F1200
G1 X54.178 Y102.812 E.01816
G1 X54.704 Y103.191 E.02034
G1 X55.139 Y103.728 E.02166
G1 X55.38 Y104.286 E.01905
G1 X55.484 Y104.926 E.02034
G1 X55.419 Y105.572 E.02034
G1 X55.188 Y106.178 E.02034
G1 X54.809 Y106.704 E.02034
G1 X54.306 Y107.114 E.02034
G1 X53.714 Y107.38 E.02034
M73 P1 R106
G1 X53.074 Y107.484 E.02034
G1 X52.428 Y107.419 E.02034
G1 X51.822 Y107.188 E.02034
G1 X51.296 Y106.809 E.02034
G1 X50.886 Y106.306 E.02034
G1 X50.62 Y105.714 E.02034
G1 X50.516 Y105.074 E.02034
G1 X50.581 Y104.428 E.02034
G1 X50.812 Y103.822 E.02034
G1 X51.191 Y103.296 E.02034
G1 X51.694 Y102.886 E.02034
G1 X52.286 Y102.62 E.02034
G1 X52.885 Y102.521 E.01905
G1 X53.58 Y102.587 E.02187
M204 P1000
G1 X53.558 Y102.97 F9000
M204 P800
;TYPE:External perimeter
G1 F1200
G1 X54.034 Y103.16 E.01606
G1 X54.475 Y103.49 E.01727
G1 X54.823 Y103.935 E.01771
G1 X55.032 Y104.43 E.01684
G1 X55.11 Y104.975 E.01727
G1 X55.045 Y105.522 E.01727
G1 X54.84 Y106.034 E.01727
G1 X54.51 Y106.475 E.01727
G1 X54.076 Y106.815 E.01727
G1 X53.57 Y107.032 E.01727
G1 X53.025 Y107.11 E.01727
G1 X52.478 Y107.045 E.01727
G1 X51.966 Y106.84 E.01727
G1 X51.525 Y106.51 E.01727
G1 X51.185 Y106.076 E.01727
G1 X50.968 Y105.57 E.01727
G1 X50.89 Y105.025 E.01727
G1 X50.955 Y104.478 E.01727
G1 X51.16 Y103.966 E.01727
G1 X51.49 Y103.525 E.01727
G1 X51.924 Y103.185 E.01727
G1 X52.43 Y102.968 E.01727
G1 X52.934 Y102.895 E.01598
G1 X53.501 Y102.953 E.01786
M204 P1000
G1 X53.838 Y102.685 F9000
G1 E-2.24 F4200
;WIPE_START
G1 F7200
G1 X54.034 Y103.16 E-.31677
G1 X54.475 Y103.49 E-.30531
G1 X54.798 Y103.902 E-.28992
;WIPE_END
G1 E-.048 F4200
G1 Z.4 F720
G1 X54.75 Y74.752 F9000
G1 Z.2 F720
G1 E3.2 F2400
M204 P800
;TYPE:Perimeter
G1 F1200
G1 X54.306 Y75.114 E.01796
G1 X53.714 Y75.38 E.02034
G1 X53.074 Y75.484 E.02034
G1 X52.428 Y75.419 E.02034
G1 X51.822 Y75.188 E.02034
G1 X51.296 Y74.809 E.02034
G1 X50.886 Y74.306 E.02034
G1 X50.62 Y73.714 E.02034
G1 X50.516 Y73.074 E.02034
G1 X50.581 Y72.428 E.02034
G1 X50.812 Y71.822 E.02034
G1 X51.191 Y71.296 E.02034
G1 X51.694 Y70.886 E.02034
G1 X52.286 Y70.62 E.02034
G1 X52.885 Y70.521 E.01905
G1 X53.56 Y70.58 E.02125
G1 X54.178 Y70.812 E.02069
G1 X54.704 Y71.191 E.02034
G1 X55.114 Y71.694 E.02034
G1 X55.188 Y71.822 E.00463
G1 X55.38 Y72.286 E.01574
G1 X55.484 Y72.926 E.02034
G1 X55.419 Y73.572 E.02034
G1 X55.188 Y74.178 E.02034
G1 X54.796 Y74.714 E.02083
M204 P1000
G1 X54.48 Y74.498 F9000
M204 P800
;TYPE:External perimeter
G1 F1200
G1 X54.076 Y74.815 E.01611
G1 X53.57 Y75.032 E.01727
G1 X53.025 Y75.11 E.01727
G1 X52.478 Y75.045 E.01727
G1 X51.966 Y74.84 E.01727
G1 X51.525 Y74.51 E.01727
G1 X51.185 Y74.076 E.01727
G1 X50.968 Y73.57 E.01727
G1 X50.89 Y73.025 E.01727
G1 X50.955 Y72.478 E.01727
G1 X51.16 Y71.966 E.01727
G1 X51.49 Y71.525 E.01727
G1 X51.924 Y71.185 E.01727
G1 X52.43 Y70.968 E.01727
G1 X52.934 Y70.895 E.01598
G1 X53.519 Y70.955 E.01841
G1 X54.034 Y71.16 E.01739
G1 X54.475 Y71.49 E.01727
G1 X54.84 Y71.966 E.0188
G1 X55.032 Y72.43 E.01574
G1 X55.11 Y72.975 E.01727
G1 X55.045 Y73.522 E.01727
G1 X54.84 Y74.034 E.01727
G1 X54.523 Y74.457 E.01656
M204 P1000
G1 X54.587 Y74.883 F9000
G1 E-2.24 F4200
;WIPE_START
G1 F7200
G1 X54.076 Y74.815 E-.31752
G1 X53.57 Y75.032 E-.30531
G1 X53.053 Y75.106 E-.28917
;WIPE_END
G1 E-.048 F4200
G1 Z.4 F720
G1 X135.1 Y62.663 F9000
G1 Z.2 F720
G1 E3.2 F2400
M204 P800
;TYPE:Solid infill
;WIDTH:0.420253
G1 F1200
G1 X134.507 Y62.07 E.02632
G1 X133.973 Y62.07 E.01674
G1 X134.93 Y63.027 E.04247
G1 X134.93 Y63.561 E.01674
G1 X133.439 Y62.07 E.06614
G1 X132.906 Y62.07 E.01674
G1 X134.93 Y64.094 E.08982
G1 X134.93 Y64.628 E.01674
G1 X132.372 Y62.07 E.1135
G1 X131.839 Y62.07 E.01674
G1 X134.93 Y65.161 E.13718
G1 X134.93 Y65.695 E.01674
G1 X131.305 Y62.07 E.16086
G1 X130.771 Y62.07 E.01674
G1 X134.93 Y66.229 E.18453
G1 X134.93 Y66.762 E.01674
G1 X130.238 Y62.07 E.20821
G1 X129.704 Y62.07 E.01674
G1 X134.93 Y67.296 E.23189
G1 X134.93 Y67.83 E.01674
G1 X129.17 Y62.07 E.25557
G1 X128.637 Y62.07 E.01674
G1 X134.93 Y68.363 E.27925
G1 X134.93 Y68.897 E.01674
M73 P1 R105
G1 X128.103 Y62.07 E.30292
G1 X127.57 Y62.07 E.01674
G1 X134.93 Y69.43 E.3266
G1 X134.93 Y69.964 E.01674
G1 X127.036 Y62.07 E.35028
G1 X126.502 Y62.07 E.01674
G1 X134.93 Y70.498 E.37396
G1 X134.93 Y71.031 E.01674
G1 X125.969 Y62.07 E.39764
G1 X125.435 Y62.07 E.01674
G1 X134.93 Y71.565 E.42131
G1 X134.93 Y72.099 E.01674
G1 X124.901 Y62.07 E.44499
G1 X124.368 Y62.07 E.01674
G1 X134.93 Y72.632 E.46867
G1 X134.93 Y73.166 E.01674
G1 X123.834 Y62.07 E.49235
G1 X123.3 Y62.07 E.01674
G1 X134.93 Y73.7 E.51602
G1 X134.93 Y74.233 E.01674
G1 X122.767 Y62.07 E.5397
G1 X122.233 Y62.07 E.01674
G1 X134.93 Y74.767 E.56338
G1 X134.93 Y75.3 E.01674
G1 X131.525 Y71.895 E.15111
G1 X131.447 Y71.708 E.00635
G1 X131.343 Y71.527 E.00656
G1 X131.029 Y71.119 E.01614
G1 X130.881 Y70.971 E.00656
G1 X130.473 Y70.657 E.01614
G1 X130.292 Y70.553 E.00656
G1 X130.105 Y70.475 E.00635
G1 X121.7 Y62.07 E.37297
G1 X121.166 Y62.07 E.01674
G1 X129.37 Y70.274 E.36404
G1 X129.047 Y70.238 E.01019
G1 X128.809 Y70.247 E.00748
G1 X120.632 Y62.07 E.36281
G1 X120.099 Y62.07 E.01674
G1 X128.342 Y70.314 E.36578
G1 X127.95 Y70.455 E.01307
G1 X119.565 Y62.07 E.37207
G1 X119.031 Y62.07 E.01674
G1 X127.585 Y70.624 E.37954
G1 X127.279 Y70.852 E.01196
G1 X118.498 Y62.07 E.38966
G1 X117.964 Y62.07 E.01674
G1 X126.993 Y71.099 E.40064
G1 X126.762 Y71.401 E.01194
G1 X117.431 Y62.07 E.41405
G1 X116.897 Y62.07 E.01674
G1 X126.551 Y71.724 E.42838
G1 X126.392 Y72.099 E.01276
G1 X116.363 Y62.07 E.44499
G1 X115.83 Y62.07 E.01674
G1 X126.285 Y72.525 E.46392
G1 X126.228 Y73.002 E.01506
G1 X115.296 Y62.07 E.48507
G1 X114.762 Y62.07 E.01674
G1 X126.57 Y73.878 E.52392
M204 P1000
G1 E-2.24 F4200
;WIPE_START
G1 F7200
G1 X125.406 Y72.714 E-.912
;WIPE_END
G1 E-.048 F4200
G1 Z.4 F720
G1 X131.534 Y72.438 F9000
G1 Z.2 F720
G1 E3.2 F2400
M204 P800
G1 F1200
G1 X134.93 Y75.834 E.15071
G1 X134.93 Y76.368 E.01674
G1 X131.75 Y73.187 E.14113
G1 X131.689 Y73.661 E.01497
G1 X134.93 Y76.901 E.1438
G1 X134.93 Y77.435 E.01674
G1 X131.547 Y74.052 E.15012
G1 X131.376 Y74.415 E.01259
G1 X134.93 Y77.969 E.15769
G1 X134.93 Y78.502 E.01674
G1 X131.151 Y74.723 E.16769
G1 X130.903 Y75.008 E.01187
G1 X134.93 Y79.036 E.17871
G1 X134.93 Y79.569 E.01674
G1 X130.603 Y75.243 E.19198
G1 X130.473 Y75.343 E.00515
G1 X130.279 Y75.452 E.00699
G1 X134.93 Y80.103 E.20636
G1 X134.93 Y80.637 E.01674
G1 X129.902 Y75.609 E.2231
G1 X129.614 Y75.698 E.00946
G1 X129.475 Y75.715 E.0044
G1 X134.93 Y81.17 E.24206
G1 X134.93 Y81.704 E.01674
G1 X128.998 Y75.772 E.26322
G1 X128.392 Y75.699 E.01917
G1 X134.93 Y82.238 E.29013
G1 X134.93 Y82.771 E.01674
G1 X114.229 Y62.07 E.91855
G1 X113.695 Y62.07 E.01674
G1 X134.93 Y83.305 E.94223
G1 X134.93 Y83.838 E.01674
G1 X113.162 Y62.07 E.96591
G1 X112.628 Y62.07 E.01674
G1 X134.93 Y84.372 E.98958
G1 X134.93 Y84.906 E.01674
G1 X112.094 Y62.07 E1.01326
G1 X111.561 Y62.07 E.01674
G1 X134.93 Y85.439 E1.03694
G1 X134.93 Y85.973 E.01674
G1 X111.027 Y62.07 E1.06062
G1 X110.493 Y62.07 E.01674
G1 X134.93 Y86.507 E1.0843
G1 X134.93 Y87.04 E.01674
G1 X109.96 Y62.07 E1.10797
G1 X109.426 Y62.07 E.01674
G1 X134.93 Y87.574 E1.13165
G1 X134.93 Y88.108 E.01674
G1 X108.892 Y62.07 E1.15533
G1 X108.359 Y62.07 E.01674
G1 X134.93 Y88.641 E1.17901
G1 X134.93 Y89.175 E.01674
G1 X107.825 Y62.07 E1.20268
G1 X107.292 Y62.07 E.01674
G1 X134.93 Y89.708 E1.22636
G1 X134.93 Y90.242 E.01674
G1 X106.758 Y62.07 E1.25004
G1 X106.224 Y62.07 E.01674
G1 X134.93 Y90.776 E1.27372
G1 X134.93 Y91.309 E.01674
G1 X105.691 Y62.07 E1.2974
G1 X105.157 Y62.07 E.01674
G1 X134.93 Y91.843 E1.32107
G1 X134.93 Y92.377 E.01674
G1 X104.623 Y62.07 E1.34475
G1 X104.09 Y62.07 E.01674
M73 P2 R105
G1 X134.93 Y92.91 E1.36843
G1 X134.93 Y93.444 E.01674
M73 P2 R104
G1 X103.556 Y62.07 E1.39211
G1 X103.023 Y62.07 E.01674
G1 X134.93 Y93.977 E1.41579
G1 X134.93 Y94.511 E.01674
G1 X102.489 Y62.07 E1.43946
G1 X101.955 Y62.07 E.01674
G1 X134.93 Y95.045 E1.46314
G1 X134.93 Y95.578 E.01674
G1 X101.422 Y62.07 E1.48682
G1 X100.888 Y62.07 E.01674
G1 X134.93 Y96.112 E1.5105
G1 X134.93 Y96.646 E.01674
G1 X100.354 Y62.07 E1.53418
G1 X99.821 Y62.07 E.01674
G1 X134.93 Y97.179 E1.55785
G1 X134.93 Y97.713 E.01674
G1 X99.287 Y62.07 E1.58153
G1 X98.754 Y62.07 E.01674
G1 X134.93 Y98.246 E1.60521
G1 X134.93 Y98.78 E.01674
G1 X98.22 Y62.07 E1.62889
G1 X97.686 Y62.07 E.01674
G1 X134.93 Y99.314 E1.65257
G1 X134.93 Y99.847 E.01674
G1 X97.153 Y62.07 E1.67624
G1 X96.619 Y62.07 E.01674
G1 X134.93 Y100.381 E1.69992
G1 X134.93 Y100.915 E.01674
G1 X96.085 Y62.07 E1.7236
G1 X95.552 Y62.07 E.01674
G1 X134.93 Y101.448 E1.74728
G1 X134.93 Y101.982 E.01674
G1 X95.018 Y62.07 E1.77095
G1 X94.484 Y62.07 E.01674
G1 X134.93 Y102.516 E1.79463
G1 X134.93 Y103.049 E.01674
G1 X93.951 Y62.07 E1.81831
G1 X93.417 Y62.07 E.01674
G1 X134.93 Y103.583 E1.84199
G1 X134.93 Y104.116 E.01674
G1 X92.884 Y62.07 E1.86567
G1 X92.35 Y62.07 E.01674
G1 X134.93 Y104.65 E1.88934
G1 X134.93 Y105.184 E.01674
G1 X91.816 Y62.07 E1.91302
G1 X91.283 Y62.07 E.01674
M73 P3 R103
G1 X134.93 Y105.717 E1.9367
G1 X134.93 Y106.251 E.01674
G1 X90.749 Y62.07 E1.96038
G1 X90.215 Y62.07 E.01674
G1 X134.93 Y106.785 E1.98406
G1 X134.93 Y107.318 E.01674
G1 X131.537 Y103.925 E.15055
G1 X131.447 Y103.708 E.00738
G1 X131.343 Y103.527 E.00656
G1 X131.029 Y103.119 E.01614
G1 X130.881 Y102.971 E.00656
G1 X130.473 Y102.657 E.01614
G1 X130.292 Y102.553 E.00656
G1 X130.075 Y102.463 E.00738
G1 X89.682 Y62.07 E1.79229
G1 X89.148 Y62.07 E.01674
G1 X129.35 Y102.272 E1.78383
G1 X129.047 Y102.238 E.00956
G1 X128.793 Y102.248 E.00798
G1 X88.615 Y62.07 E1.78278
G1 X88.081 Y62.07 E.01674
G1 X128.324 Y102.313 E1.78566
G1 X127.939 Y102.461 E.01296
G1 X87.547 Y62.07 E1.79223
