; generated by PrusaSlicer 2.5.0+win64 on 2023-05-16 at 05:24:55 UTC


;
;

;
;
; 

; external perimeters extrusion width = 0.45mm
; perimeters extrusion width = 0.45mm
; infill extrusion width = 0.45mm
; solid infill extrusion width = 0.45mm
; top infill extrusion width = 0.40mm
; first layer extrusion width = 0.42mm

M73 P0 R99
M201 X2500 Y2500 Z400 E5000 ; sets maximum accelerations, mm/sec^2
M203 X180 Y180 Z12 E80 ; sets maximum feedrates, mm / sec
M204 P1250 R1250 T2500 ; sets acceleration (P, T) and retract acceleration (R), mm/sec^2
M205 X8.00 Y8.00 Z2.00 E10.00 ; sets the jerk limits, mm/sec
M205 S0 T0 ; sets the minimum extruding and travel feed rate, mm/sec
M107
;TYPE:Custom
M862.3 P "MINI" ; printer model check
G90 ; use absolute coordinates
M83 ; extruder relative mode
M104 S170 ; set extruder temp for bed leveling
M140 S60 ; set bed temp
M109 R170 ; wait for bed leveling temp
M190 S60 ; wait for bed temp
M204 T1250 ; set travel acceleration
G28 ; home all without mesh bed level
G29 ; mesh bed leveling 
M204 T2500 ; restore travel acceleration
M104 S215 ; set extruder temp
G92 E0
G1 Y-2 X179 F2400
G1 Z3 F720
M109 S215 ; wait for extruder temp

; intro line
G1 X170 F1000
G1 Z0.2 F720
G1 X110 E8 F900
G1 X40 E10 F700
G92 E0

M221 S95 ; set flow
G21 ; set units to millimeters
G90 ; use absolute coordinates
M83 ; use relative distances for extrusion
M900 K0.2 ; Filament gcode LA 1.5
; ; Filament gcode LA 1.0
M107
;LAYER_CHANGE
;Z:0.2
;HEIGHT:0.2
;BEFORE_LAYER_CHANGE
G92 E0.0
;0.2


G1 E-3.2 F4200
M73 P0 R98
G1 Z.2 F720
;AFTER_LAYER_CHANGE
;0.2
G1 Z.4
G1 X50.06 Y66.817 F9000
G1 Z.2 F720
G1 E3.2 F2400
M204 P800
;TYPE:Skirt/Brim
;WIDTH:0.42
G1 F1200
G1 X51 Y66.623 E.03008
G1 X131 Y66.623 E2.50834
G1 X132.307 Y67.015 E.04278
G1 X133.183 Y68.06 E.04278
G1 X133.377 Y69 E.03008
G1 X133.377 Y109 E1.25417
G1 X132.985 Y110.307 E.04278
G1 X131.94 Y111.183 E.04278
G1 X131 Y111.377 E.03008
G1 X51 Y111.377 E2.50834
G1 X49.693 Y110.985 E.04278
G1 X48.817 Y109.94 E.04278
G1 X48.623 Y109 E.03008
G1 X48.623 Y69 E1.25417
G1 X49.015 Y67.693 E.04278
G1 X50.014 Y66.855 E.0409
M204 P1000
; printing object suport id:0 copy 0
G1 E-2.24 F4200
;WIPE_START
G1 F7200
G1 X51 Y66.623 E-.56121
G1 X51.633 Y66.623 E-.35079
;WIPE_END
G1 E-.048 F4200
G1 Z.4 F720
G1 X128.704 Y104.026 F9000
G1 Z.2 F720
G1 E3.2 F2400
M204 P800
;TYPE:Perimeter
;WIDTH:0.419999
G1 F1200
G1 X128.337 Y104.019 E.01152
G1 X127.92 Y104.082 E.01322
G1 X127.52 Y104.215 E.01322
G1 X127.148 Y104.414 E.01322
G1 X126.815 Y104.672 E.01322
G1 X126.53 Y104.983 E.01322
G1 X126.302 Y105.338 E.01322
G1 X126.137 Y105.726 E.01322
G1 X126.04 Y106.137 E.01322
G1 X126.014 Y106.558 E.01322
G1 X126.06 Y106.977 E.01323
G1 X126.177 Y107.384 E.01327
G1 X126.426 Y107.859 E.01682
G1 X126.762 Y108.238 E.01589
G1 X126 Y108.213 E.0239
G1 X56.76 Y108.213 E2.17097
G1 X55.238 Y108.238 E.04775
G1 X55.574 Y107.859 E.01589
G1 X55.785 Y107.477 E.01369
G1 X55.919 Y107.072 E.01336
G1 X55.982 Y106.654 E.01327
G1 X55.972 Y106.232 E.01323
G1 X55.891 Y105.818 E.01322
G1 X55.741 Y105.424 E.01322
G1 X55.527 Y105.06 E.01322
G1 X55.255 Y104.739 E.01322
G1 X54.932 Y104.467 E.01322
G1 X54.568 Y104.255 E.01322
G1 X54.173 Y104.106 E.01322
G1 X53.759 Y104.027 E.01322
G1 X53.337 Y104.019 E.01322
G1 X52.919 Y104.083 E.01324
G1 X52.518 Y104.218 E.01328
G1 X52.143 Y104.425 E.01344
G1 X51.762 Y104.759 E.01587
G1 X51.787 Y104 E.0238
G1 X51.787 Y74.576 E.92259
G1 X51.761 Y73.235 E.04205
G1 X51.883 Y73.367 E.00563
G1 X52.233 Y73.634 E.01381
G1 X52.623 Y73.825 E.01362
G1 X53.031 Y73.942 E.01331
G1 X53.452 Y73.986 E.01326
G1 X53.873 Y73.958 E.01323
G1 X54.31 Y73.849 E.01412
G1 X54.67 Y73.694 E.01231
G1 X55.024 Y73.464 E.01322
G1 X55.334 Y73.178 E.01322
G1 X55.592 Y72.844 E.01322
G1 X55.789 Y72.471 E.01322
G1 X55.92 Y72.071 E.01322
G1 X55.982 Y71.653 E.01322
G1 X55.972 Y71.232 E.01323
G1 X55.89 Y70.817 E.01325
G1 X55.738 Y70.421 E.0133
G1 X55.511 Y70.054 E.01353
G1 X55.245 Y69.768 E.01224
G1 X56.493 Y69.787 E.03914
G1 X125.51 Y69.787 E2.16398
G1 X126.761 Y69.762 E.03923
G1 X126.561 Y69.965 E.00895
G1 X126.318 Y70.317 E.01339
G1 X126.139 Y70.723 E.01392
G1 X126.041 Y71.136 E.0133
G1 X126.014 Y71.557 E.01325
G1 X126.06 Y71.977 E.01323
G1 X126.176 Y72.382 E.01322
G1 X126.358 Y72.763 E.01322
G1 X126.602 Y73.106 E.01322
G1 X126.901 Y73.404 E.01322
G1 X127.246 Y73.647 E.01322
G1 X127.627 Y73.828 E.01322
G1 X128.033 Y73.942 E.01322
G1 X128.452 Y73.986 E.01322
G1 X128.873 Y73.958 E.01323
G1 X129.284 Y73.859 E.01326
G1 X129.673 Y73.689 E.01331
G1 X130.031 Y73.444 E.01361
G1 X130.239 Y73.235 E.00924
G1 X130.213 Y74 E.024
G1 X130.214 Y104.019 E.94123
G1 X130.238 Y104.759 E.02322
G1 X129.949 Y104.491 E.01235
G1 X129.667 Y104.314 E.01043
G1 X129.175 Y104.108 E.01672
G1 X128.764 Y104.028 E.01312
M204 P1000
G1 E-2.24 F4200
;WIPE_START
G1 F7200
G1 X128.337 Y104.019 E-.23683
G1 X127.92 Y104.082 E-.23374
G1 X127.52 Y104.215 E-.2337
G1 X127.189 Y104.392 E-.20773
;WIPE_END
G1 E-.048 F4200
G1 Z.4 F720
G1 X130.6 Y108.6 F9000
G1 Z.2 F720
G1 E3.2 F2400
M204 P800
;TYPE:External perimeter
G1 F1200
G1 X129.991 Y108.624 E.01912
;WIDTH:0.43967
G1 X128.801 Y108.774 E.03956
;WIDTH:0.426609
G1 X128.012 Y108.759 E.02518
G1 X127.094 Y108.632 E.02956
;WIDTH:0.425141
G1 X126.557 Y108.609 E.01709
;WIDTH:0.419999
G1 X126 Y108.59 E.01746
G1 X55.993 Y108.59 E2.19502
G1 X54.991 Y108.624 E.03144
;WIDTH:0.438132
G1 X53.801 Y108.774 E.03942
;WIDTH:0.42686
G1 X53.012 Y108.759 E.0252
;WIDTH:0.439671
G1 X52.009 Y108.624 E.03338
;WIDTH:0.419999
G1 X51.4 Y108.6 E.01912
G1 X51.382 Y108.142 E.01438
;WIDTH:0.450196
G1 X51.335 Y107.58 E.01909
G1 X51.235 Y106.872 E.02422
;WIDTH:0.427374
G1 X51.244 Y106.003 E.02779
G1 X51.354 Y105.196 E.02602
;WIDTH:0.423515
G1 X51.388 Y104.674 E.01654
;WIDTH:0.419999
G1 X51.41 Y104 E.02115
G1 X51.41 Y73.993 E.94085
G1 X51.38 Y73.103 E.02793
;WIDTH:0.447829
G1 X51.333 Y72.579 E.01772
G1 X51.235 Y71.872 E.02402
;WIDTH:0.427185
G1 X51.243 Y71.015 E.02737
;WIDTH:0.438089
G1 X51.377 Y70.009 E.03336
;WIDTH:0.419999
G1 X51.4 Y69.4 E.01911
G1 X51.757 Y69.386 E.01122
;WIDTH:0.421758
G1 X52.289 Y69.34 E.01681
G1 X53.045 Y69.239 E.02403
;WIDTH:0.422459
G1 X54.061 Y69.25 E.03206
;WIDTH:0.425171
G1 X54.987 Y69.379 E.02973
G1 X55.498 Y69.405 E.01626
;WIDTH:0.419999
G1 X126.004 Y69.41 E2.21065
G1 X126.787 Y69.384 E.02458
;WIDTH:0.459402
G1 X127.33 Y69.353 E.01883
G1 X128.045 Y69.239 E.02506
;WIDTH:0.42076
G1 X128.694 Y69.233 E.0204
;WIDTH:0.432149
G1 X129.991 Y69.377 E.04222
;WIDTH:0.419999
G1 X130.6 Y69.4 E.01911
G1 X130.631 Y70.069 E.02102
;WIDTH:0.432049
G1 X130.767 Y71.29 E.03972
;WIDTH:0.424529
G1 X130.759 Y71.998 E.02249
;WIDTH:0.444609
G1 X130.653 Y72.69 E.02337
G1 X130.609 Y73.427 E.02465
;WIDTH:0.419999
G1 X130.59 Y74 E.01797
G1 X130.59 Y104.006 E.94084
G1 X130.623 Y105.008 E.03142
;WIDTH:0.437527
G1 X130.757 Y106.028 E.03377
;WIDTH:0.427365
G1 X130.767 Y106.289 E.00834
;WIDTH:0.424603
G1 X130.759 Y106.998 E.02251
G1 X130.624 Y107.991 E.03179
;WIDTH:0.419999
G1 X130.603 Y108.54 E.01724
M204 P1000
G1 E-2.24 F4200
;WIPE_START
G1 F7200
G1 X129.991 Y108.624 E-.34218
G1 X128.971 Y108.752 E-.56982
;WIPE_END
G1 E-.048 F4200
G1 Z.4 F720
G1 X128.664 Y104.399 F9000
G1 Z.2 F720
G1 E3.2 F2400
M204 P800
G1 F1200
G1 X129.048 Y104.463 E.01222
G1 X129.503 Y104.655 E.01549
G1 X129.698 Y104.773 E.00714
G1 X129.969 Y105.021 E.0115
;WIDTH:0.423514
G1 X130.179 Y105.321 E.01159
;WIDTH:0.431533
G1 X130.313 Y105.656 E.01167
G1 X130.398 Y106.253 E.01947
;WIDTH:0.417178
G1 X130.39 Y106.869 E.01918
;WIDTH:0.45019
G1 X130.265 Y107.507 E.02201
G1 X130.034 Y107.874 E.0147
;WIDTH:0.420863
G1 X129.757 Y108.122 E.0117
;WIDTH:0.43967
G1 X129.425 Y108.291 E.01227
G1 X128.925 Y108.38 E.01675
;WIDTH:0.426858
G1 X128.209 Y108.398 E.02289
;WIDTH:0.418457
G1 X128.199 Y108.398 E.0003
;WIDTH:0.438132
G1 X127.575 Y108.293 E.0208
G1 X127.201 Y108.109 E.0137
;WIDTH:0.419999
G1 X126.923 Y107.877 E.01133
G1 X126.657 Y107.51 E.01423
G1 X126.537 Y107.272 E.00835
G1 X126.434 Y106.929 E.01124
G1 X126.391 Y106.574 E.01123
G1 X126.409 Y106.216 E.01122
G1 X126.487 Y105.867 E.01122
G1 X126.623 Y105.536 E.01122
G1 X126.813 Y105.232 E.01122
G1 X127.051 Y104.966 E.01122
G1 X127.332 Y104.743 E.01122
G1 X127.645 Y104.571 E.01122
G1 X127.984 Y104.454 E.01122
G1 X128.337 Y104.396 E.01122
G1 X128.604 Y104.398 E.00836
M204 P1000
G1 X128.886 Y104.078 F9000
G1 E-2.24 F4200
;WIPE_START
G1 F7200
G1 X129.048 Y104.463 E-.24885
G1 X129.503 Y104.655 E-.27385
G1 X129.698 Y104.773 E-.12627
G1 X129.969 Y105.021 E-.20332
G1 X130.031 Y105.109 E-.0597
;WIPE_END
G1 E-.048 F4200
G1 Z.4 F720
G1 X130.251 Y108.182 F9000
G1 Z.2 F720
G1 E3.2 F2400
M204 P800
;TYPE:Perimeter
;WIDTH:0.442792
G1 F1200
G1 X130.176 Y108.226 E.00288
G1 X130.251 Y108.269 E.00288
G1 X130.276 Y108.226 E.00166
M204 P1000
G1 E-2.24 F4200
;WIPE_START
G1 F7200
G1 X130.251 Y108.269 E-.0277
G1 X130.176 Y108.226 E-.04798
G1 X130.251 Y108.182 E-.04798
;WIPE_END
G1 E-.83635 F4200
G1 Z.4 F720
G1 X130 Y70.106 F9000
G1 Z.2 F720
G1 E3.2 F2400
M204 P800
;TYPE:External perimeter
;WIDTH:0.423978
G1 F1200
G1 X130.168 Y70.321 E.00866
;WIDTH:0.432049
G1 X130.313 Y70.656 E.0118
G1 X130.398 Y71.253 E.01951
;WIDTH:0.417143
G1 X130.39 Y71.868 E.01916
;WIDTH:0.447824
G1 X130.269 Y72.507 E.02188
G1 X130.058 Y72.873 E.01423
;WIDTH:0.419999
G1 X129.811 Y73.138 E.01136
G1 X129.515 Y73.346 E.01134
G1 X129.188 Y73.494 E.01125
G1 X128.841 Y73.582 E.01123
G1 X128.484 Y73.61 E.01122
G1 X128.128 Y73.577 E.01122
G1 X127.782 Y73.484 E.01122
G1 X127.457 Y73.334 E.01122
G1 X127.162 Y73.132 E.01122
G1 X126.905 Y72.882 E.01122
G1 X126.695 Y72.593 E.01122
G1 X126.536 Y72.272 E.01122
G1 X126.434 Y71.929 E.01122
G1 X126.391 Y71.574 E.01122
G1 X126.409 Y71.216 E.01123
G1 X126.488 Y70.866 E.01125
G1 X126.635 Y70.522 E.01171
G1 X126.829 Y70.23 E.01101
;WIDTH:0.431756
G1 X127.212 Y69.89 E.01655
;WIDTH:0.459402
G1 X127.412 Y69.761 E.00824
G1 X128.013 Y69.622 E.02138
;WIDTH:0.422458
G1 X128.638 Y69.598 E.01972
;WIDTH:0.427554
G1 X129.263 Y69.669 E.02014
G1 X129.639 Y69.813 E.01286
;WIDTH:0.419999
G1 X129.942 Y70.031 E.0117
;WIDTH:0.423978
G1 X129.963 Y70.058 E.0011
M204 P1000
G1 X130.253 Y69.729 F9000
M204 P800
;TYPE:Perimeter
;WIDTH:0.437878
G1 F1200
G1 X130.178 Y69.772 E.00281
G1 X130.253 Y69.815 E.00281
G1 X130.277 Y69.772 E.00162
M204 P1000
G1 E-2.24 F4200
;WIPE_START
G1 F7200
G1 X130.253 Y69.815 E-.02736
G1 X130.178 Y69.772 E-.04739
G1 X130.253 Y69.729 E-.04739
;WIPE_END
G1 E-.83787 F4200
G1 Z.4 F720
G1 X52.426 Y73.308 F9000
G1 Z.2 F720
G1 E3.2 F2400
M204 P800
;TYPE:External perimeter
;WIDTH:0.419999
G1 F1200
G1 X52.161 Y73.112 E.01032
;WIDTH:0.422854
G1 X51.895 Y72.802 E.01289
;WIDTH:0.447829
G1 X51.732 Y72.507 E.01138
G1 X51.616 Y71.931 E.01978
;WIDTH:0.424526
G1 X51.6 Y71.286 E.02046
;WIDTH:0.427185
G1 X51.625 Y71.059 E.0073
;WIDTH:0.438089
G1 X51.694 Y70.621 E.01456
G1 X51.916 Y70.21 E.01535
;WIDTH:0.419999
G1 X52.099 Y69.994 E.00888
;WIDTH:0.421758
G1 X52.402 Y69.791 E.01149
;WIDTH:0.427728
G1 X52.728 Y69.67 E.01111
G1 X53.053 Y69.617 E.01055
;WIDTH:0.42076
G1 X53.638 Y69.598 E.01837
;WIDTH:0.422459
G1 X53.987 Y69.622 E.01104
;WIDTH:0.459402
G1 X54.588 Y69.761 E.02138
G1 X54.943 Y69.999 E.0148
;WIDTH:0.419999
G1 X55.195 Y70.26 E.01136
G1 X55.389 Y70.564 E.01131
G1 X55.522 Y70.897 E.01125
G1 X55.595 Y71.248 E.01123
G1 X55.608 Y71.606 E.01122
G1 X55.559 Y71.96 E.01122
G1 X55.452 Y72.302 E.01122
G1 X55.288 Y72.62 E.01122
G1 X55.073 Y72.906 E.01122
G1 X54.813 Y73.152 E.01122
G1 X54.515 Y73.35 E.01122
G1 X54.211 Y73.485 E.01044
G1 X53.841 Y73.582 E.01199
G1 X53.484 Y73.61 E.01123
G1 X53.127 Y73.577 E.01123
G1 X52.781 Y73.483 E.01125
G1 X52.476 Y73.339 E.01056
M204 P1000
G1 X52.137 Y73.466 F9000
G1 E-2.24 F4200
;WIPE_START
G1 F7200
G1 X52.161 Y73.112 E-.21535
G1 X51.895 Y72.802 E-.22607
G1 X51.732 Y72.507 E-.1873
G1 X51.631 Y72.006 E-.28328
;WIPE_END
G1 E-.048 F4200
G1 Z.4 F720
G1 X51.797 Y69.729 F9000
G1 Z.2 F720
G1 E3.2 F2400
M204 P800
;TYPE:Perimeter
;WIDTH:0.43788
G1 F1200
G1 X51.723 Y69.772 E.00281
G1 X51.797 Y69.815 E.00281
G1 X51.822 Y69.772 E.00162
M204 P1000
G1 E-2.24 F4200
;WIPE_START
G1 F7200
G1 X51.797 Y69.815 E-.02736
G1 X51.723 Y69.772 E-.04739
G1 X51.797 Y69.729 E-.04739
;WIPE_END
G1 E-.83787 F4200
G1 Z.4 F720
G1 X52.169 Y104.893 F9000
G1 Z.2 F720
G1 E3.2 F2400
M204 P800
;TYPE:External perimeter
;WIDTH:0.419999
G1 F1200
G1 X52.332 Y104.751 E.00678
G1 X52.645 Y104.573 E.01129
G1 X52.984 Y104.454 E.01124
G1 X53.337 Y104.396 E.01123
G1 X53.695 Y104.399 E.01122
G1 X54.047 Y104.462 E.01122
G1 X54.384 Y104.584 E.01122
G1 X54.695 Y104.761 E.01122
G1 X54.972 Y104.988 E.01122
M73 P1 R98
G1 X55.206 Y105.258 E.01122
G1 X55.391 Y105.564 E.01122
G1 X55.522 Y105.897 E.01122
G1 X55.595 Y106.248 E.01122
G1 X55.608 Y106.606 E.01123
G1 X55.559 Y106.961 E.01124
G1 X55.45 Y107.303 E.01127
G1 X55.28 Y107.624 E.01137
G1 X55.049 Y107.906 E.01144
;WIDTH:0.42139
G1 X54.759 Y108.136 E.01164
;WIDTH:0.438132
G1 X54.425 Y108.293 E.01213
G1 X53.926 Y108.381 E.01664
;WIDTH:0.42661
G1 X53.209 Y108.398 E.02291
;WIDTH:0.41999
G1 X53.173 Y108.396 E.00111
;WIDTH:0.439671
G1 X52.575 Y108.291 E.02004
G1 X52.2 Y108.092 E.01401
;WIDTH:0.422914
G1 X51.905 Y107.788 E.01338
;WIDTH:0.450196
G1 X51.735 Y107.507 E.01114
G1 X51.616 Y106.929 E.01996
;WIDTH:0.424618
G1 X51.6 Y106.286 E.02042
;WIDTH:0.431534
G1 X51.687 Y105.656 E.02054
G1 X51.883 Y105.229 E.01519
;WIDTH:0.419999
G1 X52.059 Y104.989 E.00934
G1 X52.124 Y104.933 E.00269
M204 P1000
G1 X52.117 Y104.683 F9000
G1 E-2.24 F4200
;WIPE_START
G1 F7200
G1 X52.332 Y104.751 E-.15312
G1 X52.645 Y104.573 E-.19953
G1 X52.984 Y104.454 E-.1987
G1 X53.337 Y104.396 E-.19845
G1 X53.63 Y104.398 E-.16219
;WIPE_END
G1 E-.048 F4200
G1 Z.4 F720
G1 X51.799 Y108.182 F9000
G1 Z.2 F720
G1 E3.2 F2400
M204 P800
;TYPE:Perimeter
;WIDTH:0.442794
G1 F1200
G1 X51.724 Y108.226 E.00288
G1 X51.799 Y108.269 E.00288
G1 X51.824 Y108.226 E.00166
M204 P1000
G1 E-2.24 F4200
;WIPE_START
G1 F7200
G1 X51.799 Y108.269 E-.0277
G1 X51.724 Y108.226 E-.04798
G1 X51.799 Y108.182 E-.04798
;WIPE_END
G1 E-.83635 F4200
G1 Z.4 F720
G1 X130.111 Y74.28 F9000
G1 Z.2 F720
G1 E3.2 F2400
M204 P800
;TYPE:Solid infill
;WIDTH:0.42167
G1 F1200
G1 X129.78 Y73.949 E.01472
G1 X129.407 Y74.111 E.01282
G1 X129.941 Y74.646 E.02381
G1 X129.941 Y75.182 E.01687
G1 X128.981 Y74.221 E.04278
G1 X128.489 Y74.265 E.01555
G1 X129.941 Y75.717 E.06468
G1 X129.941 Y76.253 E.01687
G1 X127.634 Y73.945 E.10277
M204 P1000
G1 E-2.24 F4200
;WIPE_START
G1 F7200
G1 X128.797 Y75.109 E-.912
;WIPE_END
G1 E-.048 F4200
G1 Z.4 F720
G1 X126.182 Y70.351 F9000
G1 Z.2 F720
G1 E3.2 F2400
M204 P800
G1 F1200
G1 X125.89 Y70.059 E.01299
G1 X125.354 Y70.059 E.01687
G1 X125.888 Y70.593 E.02375
G1 X125.778 Y71.019 E.01385
G1 X124.819 Y70.059 E.04272
G1 X124.283 Y70.06 E.01687
G1 X125.734 Y71.51 E.06462
G1 X125.78 Y72.018 E.01607
G1 X125.808 Y72.12 E.00333
G1 X123.748 Y70.06 E.09178
G1 X123.212 Y70.06 E.01687
G1 X129.941 Y76.788 E.29969
G1 X129.941 Y77.324 E.01687
G1 X122.677 Y70.06 E.32354
G1 X122.141 Y70.06 E.01687
G1 X129.941 Y77.86 E.3474
G1 X129.941 Y78.395 E.01687
G1 X121.605 Y70.06 E.37125
G1 X121.07 Y70.06 E.01687
G1 X129.941 Y78.931 E.3951
G1 X129.941 Y79.467 E.01687
G1 X120.534 Y70.06 E.41896
G1 X119.999 Y70.06 E.01687
G1 X129.941 Y80.002 E.44281
G1 X129.941 Y80.538 E.01687
G1 X119.463 Y70.06 E.46666
G1 X118.927 Y70.06 E.01687
G1 X129.941 Y81.073 E.49052
G1 X129.941 Y81.609 E.01687
G1 X118.392 Y70.06 E.51437
G1 X117.856 Y70.06 E.01687
G1 X129.941 Y82.145 E.53823
G1 X129.941 Y82.68 E.01687
G1 X117.321 Y70.06 E.56208
G1 X116.785 Y70.06 E.01687
G1 X129.941 Y83.216 E.58593
G1 X129.941 Y83.752 E.01687
G1 X116.25 Y70.06 E.60979
G1 X115.714 Y70.06 E.01687
G1 X129.941 Y84.287 E.63364
G1 X129.941 Y84.823 E.01687
G1 X115.178 Y70.06 E.65749
G1 X114.643 Y70.06 E.01687
M73 P1 R97
G1 X129.941 Y85.358 E.68135
G1 X129.941 Y85.894 E.01687
G1 X114.107 Y70.06 E.7052
G1 X113.572 Y70.06 E.01687
G1 X129.941 Y86.43 E.72906
G1 X129.941 Y86.965 E.01687
G1 X113.036 Y70.06 E.75291
G1 X112.5 Y70.061 E.01687
G1 X129.941 Y87.501 E.77676
G1 X129.941 Y88.037 E.01687
